lib/flags/nu-niue.svg

<svg xmlns="http://www.w3.org/2000/svg" fill="none" aria-hidden="true" viewBox="0 0 42 30"><g id="Country=NU - Niue, Size=sm (36x24)" filter="url(#filter0_dd_91_26070)"><g clip-path="url(#clip0_91_26070)"><g id="flag"><mask id="mask0_91_26070" width="36" height="24" x="3" y="2" maskUnits="userSpaceOnUse" style="mask-type:alpha"><rect id="mask" width="36" height="24" x="3" y="2" fill="white"/></mask><g mask="url(#mask0_91_26070)"><g id="contents"><path id="background" fill="#2E42A5" fill-rule="evenodd" d="M3 2V26H39V2H3Z" clip-rule="evenodd"/><mask id="mask1_91_26070" width="36" height="24" x="3" y="2" maskUnits="userSpaceOnUse" style="mask-type:alpha"><path id="background_2" fill="white" fill-rule="evenodd" d="M3 2V26H39V2H3Z" clip-rule="evenodd"/></mask><g mask="url(#mask1_91_26070)"><path id="bottom" fill="#FECA00" fill-rule="evenodd" d="M3 18V26H39V18H3Z" clip-rule="evenodd"/><g id="mark 1"><mask id="mask2_91_26070" width="36" height="16" x="3" y="2" maskUnits="userSpaceOnUse" style="mask-type:alpha"><rect id="mask_2" width="36" height="16" x="3" y="2" fill="white"/></mask><g mask="url(#mask2_91_26070)"><g id="contents_2"><g id="stripe"><path id="white" fill="white" d="M0.455078 17.1294L7.59064 18.5967L22.8018 11.1258L24.4114 10.2891L38.8605 3.57348L42.2835 1.45245L34.4539 0.810589L21.8296 7.1406L12.7065 11.1258L0.455078 17.1294Z"/><path id="red" fill="#F50100" d="M1.08203 18.0185L4.92384 19.1387L40.8552 1.18566H35.4608L1.08203 18.0185Z"/></g><g id="stripe_2"><path id="white_2" fill="white" d="M41.6674 16.7308L41.9507 18.2408L34.4096 18.5967L22.2528 12.2673L21.1065 12.6154L-1.59021 2.41065L7.78085 0.80731L20.3088 6.95919L30.1092 11.1684L41.6674 16.7308Z"/><path id="red_2" fill="#F50100" d="M41.6934 17.6367L37.8515 18.7568L22.5516 11.0702L18.0155 10.2114L-0.665965 1.46193H4.72839L23.3994 10.0037L28.3588 11.0335L41.6934 17.6367Z"/></g><g id="cross"><path id="white_3" fill="white" d="M17.9938 0.75V-0.5H16.7438V0.75H17.9938ZM17.9938 6.75V8H19.2438V6.75H17.9938ZM1.75 6.75V5.5H0.5V6.75H1.75ZM1.75 13.25H0.5V14.5H1.75V13.25ZM17.9938 13.25H19.2438V12H17.9938V13.25ZM17.9938 21.25H16.7438V22.5H17.9938V21.25ZM24.0809 21.25V22.5H25.3309V21.25H24.0809ZM24.0809 13.25V12H22.8309V13.25H24.0809ZM40.25 13.25V14.5H41.5V13.25H40.25ZM40.25 6.75H41.5V5.5H40.25V6.75ZM24.0809 6.75H22.8309V8H24.0809V6.75ZM24.0809 0.75H25.3309V-0.5H24.0809V0.75ZM21.5809 6.75V8H22.8309V6.75H21.5809ZM21.5809 3.25H22.8309V2H21.5809V3.25ZM20.4938 3.25V2H19.2438V3.25H20.4938ZM20.4938 6.75H19.2438V8H20.4938V6.75ZM21.5809 9.25H22.8309V8H21.5809V9.25ZM20.4938 9.25V8H19.2438V9.25H20.4938ZM21.5809 10.75V12H22.8309V10.75H21.5809ZM20.4938 10.75H19.2438V12H20.4938V10.75ZM17.9938 9.25H19.2438V8H17.9938V9.25ZM4.25 9.25V8H3V9.25H4.25ZM4.25 10.75H3V12H4.25V10.75ZM17.9938 10.75V12H19.2438V10.75H17.9938ZM20.4938 13.25V12H19.2438V13.25H20.4938ZM20.4938 18.75H19.2438V20H20.4938V18.75ZM21.5809 18.75V20H22.8309V18.75H21.5809ZM21.5809 13.25H22.8309V12H21.5809V13.25ZM24.0809 9.25V8H22.8309V9.25H24.0809ZM24.0809 10.75H22.8309V12H24.0809V10.75ZM37.75 9.25H39V8H37.75V9.25ZM37.75 10.75V12H39V10.75H37.75ZM17.9938 2H19.2438V-0.5H17.9938V2ZM19.2438 2V0.75H16.7438V2H19.2438ZM19.2438 6.75V2H16.7438V6.75H19.2438ZM3 8H17.9938V5.5H3V8ZM1.75 8H3V5.5H1.75V8ZM3 8V6.75H0.5V8H3ZM3 12V8H0.5V12H3ZM3 13.25V12H0.5V13.25H3ZM3 12H1.75V14.5H3V12ZM17.9938 12H3V14.5H17.9938V12ZM19.2438 20V13.25H16.7438V20H19.2438ZM19.2438 21.25V20H16.7438V21.25H19.2438ZM19.2438 20H17.9938V22.5H19.2438V20ZM22.8309 20H19.2438V22.5H22.8309V20ZM24.0809 20H22.8309V22.5H24.0809V20ZM22.8309 20V21.25H25.3309V20H22.8309ZM22.8309 13.25V20H25.3309V13.25H22.8309ZM39 12H24.0809V14.5H39V12ZM40.25 12H39V14.5H40.25V12ZM39 12V13.25H41.5V12H39ZM39 8V12H41.5V8H39ZM39 6.75V8H41.5V6.75H39ZM39 8H40.25V5.5H39V8ZM24.0809 8H39V5.5H24.0809V8ZM22.8309 2V6.75H25.3309V2H22.8309ZM22.8309 0.75V2H25.3309V0.75H22.8309ZM22.8309 2H24.0809V-0.5H22.8309V2ZM19.2438 2H22.8309V-0.5H19.2438V2ZM22.8309 6.75V3.25H20.3309V6.75H22.8309ZM21.5809 2H20.4938V4.5H21.5809V2ZM19.2438 3.25V6.75H21.7438V3.25H19.2438ZM20.4938 8H21.5809V5.5H20.4938V8ZM21.5809 8H20.4938V10.5H21.5809V8ZM22.8309 10.75V9.25H20.3309V10.75H22.8309ZM20.4938 12H21.5809V9.5H20.4938V12ZM19.2438 9.25V10.75H21.7438V9.25H19.2438ZM17.9938 8H4.25V10.5H17.9938V8ZM3 9.25V10.75H5.5V9.25H3ZM4.25 12H17.9938V9.5H4.25V12ZM19.2438 10.75V9.25H16.7438V10.75H19.2438ZM19.2438 13.25V18.75H21.7438V13.25H19.2438ZM20.4938 20H21.5809V17.5H20.4938V20ZM22.8309 18.75V13.25H20.3309V18.75H22.8309ZM21.5809 12H20.4938V14.5H21.5809V12ZM22.8309 9.25V10.75H25.3309V9.25H22.8309ZM37.75 8H24.0809V10.5H37.75V8ZM39 10.75V9.25H36.5V10.75H39ZM24.0809 12H37.75V9.5H24.0809V12Z"/><path id="red_3" fill="#F50100" fill-rule="evenodd" d="M22.9039 0.666504H19.0962V7.99984H3V11.9998H19.0962V21.3332H22.9039V11.9998H41.25V7.99984H22.9039V0.666504Z" clip-rule="evenodd"/></g></g></g></g><g id="mark 2"><path id="Oval 37" fill="#2E42A5" fill-rule="evenodd" d="M21.0562 12.6001C22.7648 12.6001 24.1499 11.3689 24.1499 9.8501C24.1499 8.33131 22.7648 7.1001 21.0562 7.1001C19.3475 7.1001 17.9624 8.33131 17.9624 9.8501C17.9624 11.3689 19.3475 12.6001 21.0562 12.6001Z" clip-rule="evenodd"/><g id="stars"><path id="Star 10" fill="#FECA00" fill-rule="evenodd" d="M21.1125 10.6914L19.6524 11.5945L20.1675 10.0811L18.75 9.12584L20.5285 9.09362L21.1125 7.6001L21.6965 9.09362L23.475 9.12584L22.0575 10.0811L22.5726 11.5945L21.1125 10.6914Z" clip-rule="evenodd"/><path id="Star 10_2" fill="#FECA00" fill-rule="evenodd" d="M10.9873 10.5761L9.77055 11.3287L10.1998 10.0675L9.01855 9.27145L10.5006 9.2446L10.9873 8L11.474 9.2446L12.9561 9.27145L11.7748 10.0675L12.2041 11.3287L10.9873 10.5761Z" clip-rule="evenodd"/><path id="Star 10_3" fill="#FECA00" fill-rule="evenodd" d="M31.2373 10.5761L30.0206 11.3287L30.4498 10.0675L29.2686 9.27145L30.7506 9.2446L31.2373 8L31.724 9.2446L33.2061 9.27145L32.0248 10.0675L32.4541 11.3287L31.2373 10.5761Z" clip-rule="evenodd"/><path id="Star 10_4" fill="#FECA00" fill-rule="evenodd" d="M21.1123 5.77628L19.8956 6.52889L20.3248 5.2677L19.1436 4.47164L20.6256 4.4448L21.1123 3.2002L21.599 4.4448L23.0811 4.47164L21.8998 5.2677L22.3291 6.52889L21.1123 5.77628Z" clip-rule="evenodd"/><path id="Star 10_5" fill="#FECA00" fill-rule="evenodd" d="M21.1123 16.3764L19.8956 17.129L20.3248 15.8678L19.1436 15.0717L20.6256 15.0449L21.1123 13.8003L21.599 15.0449L23.0811 15.0717L21.8998 15.8678L22.3291 17.129L21.1123 16.3764Z" clip-rule="evenodd"/></g></g></g></g></g></g></g></g><defs><filter id="filter0_dd_91_26070" width="42" height="30" x="0" y="0" color-interpolation-filters="sRGB" filterUnits="userSpaceOnUse"><feFlood flood-opacity="0" result="BackgroundImageFix"/><feColorMatrix in="SourceAlpha" result="hardAlpha" values="0 0 0 0 0 0 0 0 0 0 0 0 0 0 0 0 0 0 127 0"/><feOffset dy="1"/><feGaussianBlur stdDeviation="1"/><feColorMatrix values="0 0 0 0 0.0627451 0 0 0 0 0.0941176 0 0 0 0 0.156863 0 0 0 0.06 0"/><feBlend in2="BackgroundImageFix" result="effect1_dropShadow_91_26070"/><feColorMatrix in="SourceAlpha" result="hardAlpha" values="0 0 0 0 0 0 0 0 0 0 0 0 0 0 0 0 0 0 127 0"/><feOffset dy="1"/><feGaussianBlur stdDeviation="1.5"/><feColorMatrix values="0 0 0 0 0.0627451 0 0 0 0 0.0941176 0 0 0 0 0.156863 0 0 0 0.1 0"/><feBlend in2="effect1_dropShadow_91_26070" result="effect2_dropShadow_91_26070"/><feBlend in="SourceGraphic" in2="effect2_dropShadow_91_26070" result="shape"/></filter><clipPath id="clip0_91_26070"><rect width="36" height="24" x="3" y="2" fill="white" rx="2"/></clipPath></defs></svg>

<svg xmlns="http://www.w3.org/2000/svg" fill="none" aria-hidden="true" viewBox="0 0 42 30"><g filter="url(#a)"><g clip-path="url(#b)"><mask id="c" width="36" height="24" x="3" y="2" maskUnits="userSpaceOnUse" style="mask-type:alpha"><path fill="#fff" d="M3 2h36v24H3z"/></mask><g mask="url(#c)"><path fill="#2E42A5" fill-rule="evenodd" d="M3 2v24h36V2H3Z" clip-rule="evenodd"/><mask id="d" width="36" height="24" x="3" y="2" maskUnits="userSpaceOnUse" style="mask-type:alpha"><path fill="#fff" fill-rule="evenodd" d="M3 2v24h36V2H3Z" clip-rule="evenodd"/></mask><g mask="url(#d)"><path fill="#FECA00" fill-rule="evenodd" d="M3 18v8h36v-8H3Z" clip-rule="evenodd"/><mask id="e" width="36" height="16" x="3" y="2" maskUnits="userSpaceOnUse" style="mask-type:alpha"><path fill="#fff" d="M3 2h36v16H3z"/></mask><g mask="url(#e)"><path fill="#fff" d="m.455 17.13 7.136 1.467 15.21-7.471 1.61-.837 14.45-6.716 3.422-2.12-7.83-.642L21.83 7.14l-9.123 3.985L.454 17.129Z"/><path fill="#F50100" d="m1.082 18.018 3.842 1.12L40.855 1.187h-5.394L1.082 18.018Z"/><path fill="#fff" d="m41.667 16.73.284 1.51-7.541.357-12.157-6.33-1.146.348L-1.59 2.411 7.78.807 20.31 6.96l9.8 4.21 11.558 5.562Z"/><path fill="#F50100" d="m41.693 17.637-3.841 1.12-15.3-7.687-4.537-.859-18.681-8.75h5.394L23.4 10.005l4.96 1.03 13.334 6.603Z"/><path fill="#fff" d="M17.994.75V-.5h-1.25V.75h1.25Zm0 6V8h1.25V6.75h-1.25Zm-16.244 0V5.5H.5v1.25h1.25Zm0 6.5H.5v1.25h1.25v-1.25Zm16.244 0h1.25V12h-1.25v1.25Zm0 8h-1.25v1.25h1.25v-1.25Zm6.087 0v1.25h1.25v-1.25h-1.25Zm0-8V12h-1.25v1.25h1.25Zm16.169 0v1.25h1.25v-1.25h-1.25Zm0-6.5h1.25V5.5h-1.25v1.25Zm-16.17 0h-1.25V8h1.25V6.75Zm0-6h1.25V-.5h-1.25V.75Zm-2.5 6V8h1.25V6.75h-1.25Zm0-3.5h1.25V2h-1.25v1.25Zm-1.086 0V2h-1.25v1.25h1.25Zm0 3.5h-1.25V8h1.25V6.75Zm1.087 2.5h1.25V8h-1.25v1.25Zm-1.087 0V8h-1.25v1.25h1.25Zm1.087 1.5V12h1.25v-1.25h-1.25Zm-1.087 0h-1.25V12h1.25v-1.25Zm-2.5-1.5h1.25V8h-1.25v1.25Zm-13.744 0V8H3v1.25h1.25Zm0 1.5H3V12h1.25v-1.25Zm13.744 0V12h1.25v-1.25h-1.25Zm2.5 2.5V12h-1.25v1.25h1.25Zm0 5.5h-1.25V20h1.25v-1.25Zm1.087 0V20h1.25v-1.25h-1.25Zm0-5.5h1.25V12h-1.25v1.25Zm2.5-4V8h-1.25v1.25h1.25Zm0 1.5h-1.25V12h1.25v-1.25Zm13.669-1.5H39V8h-1.25v1.25Zm0 1.5V12H39v-1.25h-1.25ZM17.994 2h1.25V-.5h-1.25V2Zm1.25 0V.75h-2.5V2h2.5Zm0 4.75V2h-2.5v4.75h2.5ZM3 8h14.994V5.5H3V8ZM1.75 8H3V5.5H1.75V8ZM3 8V6.75H.5V8H3Zm0 4V8H.5v4H3Zm0 1.25V12H.5v1.25H3ZM3 12H1.75v2.5H3V12Zm14.994 0H3v2.5h14.994V12Zm1.25 8v-6.75h-2.5V20h2.5Zm0 1.25V20h-2.5v1.25h2.5Zm0-1.25h-1.25v2.5h1.25V20Zm3.587 0h-3.587v2.5h3.587V20Zm1.25 0h-1.25v2.5h1.25V20Zm-1.25 0v1.25h2.5V20h-2.5Zm0-6.75V20h2.5v-6.75h-2.5ZM39 12H24.08v2.5H39V12Zm1.25 0H39v2.5h1.25V12ZM39 12v1.25h2.5V12H39Zm0-4v4h2.5V8H39Zm0-1.25V8h2.5V6.75H39ZM39 8h1.25V5.5H39V8ZM24.08 8H39V5.5H24.08V8Zm-1.25-6v4.75h2.5V2h-2.5Zm0-1.25V2h2.5V.75h-2.5Zm0 1.25h1.25V-.5h-1.25V2Zm-3.586 0h3.587V-.5h-3.587V2Zm3.587 4.75v-3.5h-2.5v3.5h2.5ZM21.58 2h-1.087v2.5h1.087V2Zm-2.337 1.25v3.5h2.5v-3.5h-2.5ZM20.494 8h1.087V5.5h-1.087V8Zm1.087 0h-1.087v2.5h1.087V8Zm1.25 2.75v-1.5h-2.5v1.5h2.5ZM20.494 12h1.087V9.5h-1.087V12Zm-1.25-2.75v1.5h2.5v-1.5h-2.5ZM17.994 8H4.25v2.5h13.744V8ZM3 9.25v1.5h2.5v-1.5H3ZM4.25 12h13.744V9.5H4.25V12Zm14.994-1.25v-1.5h-2.5v1.5h2.5Zm0 2.5v5.5h2.5v-5.5h-2.5Zm1.25 6.75h1.087v-2.5h-1.087V20Zm2.337-1.25v-5.5h-2.5v5.5h2.5ZM21.58 12h-1.087v2.5h1.087V12Zm1.25-2.75v1.5h2.5v-1.5h-2.5ZM37.75 8H24.08v2.5h13.67V8ZM39 10.75v-1.5h-2.5v1.5H39ZM24.08 12h13.67V9.5H24.08V12Z"/><path fill="#F50100" fill-rule="evenodd" d="M22.904.667h-3.808V8H3v4h16.096v9.333h3.808V12H41.25V8H22.904V.667Z" clip-rule="evenodd"/></g><g fill-rule="evenodd" clip-rule="evenodd"><path fill="#2E42A5" d="M21.056 12.6c1.709 0 3.094-1.231 3.094-2.75S22.765 7.1 21.056 7.1c-1.709 0-3.094 1.231-3.094 2.75s1.386 2.75 3.094 2.75Z"/><path fill="#FECA00" d="m21.113 10.691-1.46.903.515-1.513-1.418-.955 1.779-.032.584-1.494.584 1.494 1.778.032-1.418.955.516 1.514-1.46-.904Zm-10.126-.115-1.216.753.429-1.261-1.181-.797 1.482-.026L10.987 8l.487 1.245 1.482.026-1.181.796.43 1.262-1.218-.753Zm20.25 0-1.216.753.429-1.261-1.181-.797 1.482-.026L31.237 8l.487 1.245 1.482.026-1.181.796.43 1.262-1.218-.753Zm-10.125-4.8-1.216.753.429-1.261-1.181-.796 1.482-.027.486-1.245.487 1.245 1.482.027-1.181.796.43 1.26-1.218-.752Zm0 10.6-1.216.753.429-1.261-1.181-.796 1.482-.027.486-1.245.487 1.245 1.482.027-1.181.796.43 1.261-1.218-.753Z"/></g></g></g></g></g><defs><clipPath id="b"><rect width="36" height="24" x="3" y="2" fill="#fff" rx="2"/></clipPath><filter id="a" width="42" height="30" x="0" y="0" color-interpolation-filters="sRGB" filterUnits="userSpaceOnUse"><feFlood flood-opacity="0" result="BackgroundImageFix"/><feColorMatrix in="SourceAlpha" result="hardAlpha" values="0 0 0 0 0 0 0 0 0 0 0 0 0 0 0 0 0 0 127 0"/><feOffset dy="1"/><feGaussianBlur stdDeviation="1"/><feColorMatrix values="0 0 0 0 0.0627451 0 0 0 0 0.0941176 0 0 0 0 0.156863 0 0 0 0.06 0"/><feBlend in2="BackgroundImageFix" result="effect1_dropShadow_91_26070"/><feColorMatrix in="SourceAlpha" result="hardAlpha" values="0 0 0 0 0 0 0 0 0 0 0 0 0 0 0 0 0 0 127 0"/><feOffset dy="1"/><feGaussianBlur stdDeviation="1.5"/><feColorMatrix values="0 0 0 0 0.0627451 0 0 0 0 0.0941176 0 0 0 0 0.156863 0 0 0 0.1 0"/><feBlend in2="effect1_dropShadow_91_26070" result="effect2_dropShadow_91_26070"/><feBlend in="SourceGraphic" in2="effect2_dropShadow_91_26070" result="shape"/></filter></defs></svg>
